X: 16
T:De Galicia a Escocia
M:2/4
L:1/8
Q:200
C:Xosé Casal
R:Marcha
B:Os Segredos da Gaita. FOXO
K:C
CE |: G2 cB c2 GG | AG FA | G2 EE | FE DF |
E2C2 |D2B,2 |1 C2 CE :|2 C2 EE |: FE DC | B,2 BB | 
BcBA | G2 GG | AG FE | F2 G2 A2 B2 |1 G2 EE :|2 c2||

